public/img/3.svg

<svg width="216" height="275" viewBox="0 0 216 275" fill="none" xmlns="http://www.w3.org/2000/svg">
<g opacity="0.7">
<g clip-path="url(#clip0)">
<mask id="mask0" mask-type="alpha" maskUnits="userSpaceOnUse" x="-85" y="-70" width="536" height="535">
<path fill-rule="evenodd" clip-rule="evenodd" d="M8.24943 172.09C5.42425 180.399 3.10828 188.856 1.27153 197.296L110.153 89.5632C108.131 89.5318 106.108 89.482 104.088 89.4323C100.791 89.3511 97.5 89.2702 94.2332 89.2694L8.24943 172.09ZM17.2785 149.843L76.9567 90.5039C68.4763 91.9815 60.3889 95.1037 53.0247 101.464C37.9128 114.516 26.1256 131.355 17.2785 149.843ZM121.901 89.4039L-1.94351 215.278C-2.74997 220.867 -3.46865 226.541 -4.05784 232.249L144.308 84.7429C137.107 87.7758 129.567 88.9858 121.901 89.4039ZM181.053 48.2106L249.595 -19.9338C246.529 -19.8543 243.4 -19.4847 240.211 -18.7956C217.967 -13.9906 204.602 8.68069 190.851 32.0072C187.645 37.4454 184.419 42.9193 181.053 48.2106ZM261.701 -18.7337L-5.11177 244.583C-5.54681 251.114 -5.77458 257.64 -5.73324 264.083L268.097 -16.8565C266.002 -17.6147 263.87 -18.2446 261.701 -18.7337ZM275.838 -13.4024L-5.33027 275.971C-5.13769 279.014 -4.87358 282.028 -4.53102 285.002L287.121 -5.97153C283.509 -8.81857 279.746 -11.3261 275.838 -13.4024ZM290.844 -2.87368L-2.88146 295.87C-2.04021 300.269 -0.99366 304.55 0.283301 308.682L302.166 8.62286C298.593 4.48498 294.817 0.608259 290.844 -2.87368ZM311.183 20.154L3.18565 316.821C5.12254 321.567 7.42242 326.063 10.1299 330.254L316.142 27.4699C314.55 25.0041 312.897 22.5587 311.183 20.154ZM319.261 32.452L17.2086 339.454C17.3535 339.612 17.4992 339.77 17.6457 339.927C19.7403 342.173 21.958 344.237 24.2861 346.13L326.612 45.5567C326.242 44.7909 325.854 44.0316 325.449 43.279C323.521 39.698 321.457 36.068 319.261 32.452ZM329.699 53.1637L29.0173 349.645C33.3552 352.584 38.0093 355.015 42.9124 356.991L331.67 60.2299C331.123 57.8311 330.472 55.4739 329.699 53.1637ZM333.24 69.2913L51.439 359.912C54.0996 360.675 56.8162 361.325 59.5796 361.87L334.202 87.9321C334.237 81.5658 333.99 75.3265 333.24 69.2913ZM334.048 95.3494L70.1991 363.439C74.9395 363.922 79.7762 364.143 84.6676 364.134L332.883 117.33C332.977 115.7 333.074 114.07 333.172 112.442C333.515 106.705 333.856 100.99 334.048 95.3494ZM332.126 137.038L96.8445 363.664C104.487 363.104 112.178 362.063 119.764 360.665L332.476 150.197C332.185 145.858 332.092 141.463 332.126 137.038ZM333.409 158.841L139.71 355.714C154.316 349.845 166.392 337.075 178.558 324.21C191.034 311.017 203.604 297.724 219.096 291.67L336.966 174.483C335.462 169.245 334.216 164.023 333.409 158.841ZM340.012 184.215L234.953 287.897C239.875 287.364 244.877 287.323 249.915 287.594L342.807 192.29C341.853 189.6 340.913 186.907 340.012 184.215ZM348.821 209.264L270.424 289.948C272.466 290.264 274.504 290.59 276.536 290.915C278.512 291.232 280.482 291.547 282.444 291.85L352.734 221.724C351.583 217.604 350.248 213.446 348.821 209.264ZM354.947 230.805L293.437 293.367C299.896 294.105 306.2 294.473 312.248 294.053L356.558 250.01C356.947 243.768 356.279 237.348 354.947 230.805Z" fill="white"/>
</mask>
<g mask="url(#mask0)">
<path d="M115.077 172.936H144.037C144.037 176.918 145.304 179.995 147.838 182.167C150.372 184.339 153.811 185.425 158.155 185.425C162.499 185.425 165.878 184.038 168.291 181.262C170.825 178.366 172.153 174.686 172.273 170.221C172.153 165.636 171.067 161.956 169.015 159.18C167.085 156.405 164.551 154.655 161.413 153.931C158.397 153.087 154.958 152.604 151.096 152.483C147.356 152.242 143.675 152.423 140.055 153.026V148.863L158.879 111.577H119.964V84.7894H200.69V89.4954L177.522 132.211C194.778 136.797 203.405 149.406 203.405 170.04C203.405 181.745 199.423 192.002 191.459 200.81C183.495 209.498 172.575 213.842 158.698 213.842C146.149 213.842 135.772 210.162 127.566 202.801C119.482 195.32 115.319 185.365 115.077 172.936Z" fill="white"/>
</g>
</g>
</g>
<defs>
<clipPath id="clip0">
<rect x="0.246094" y="0.808594" width="215.608" height="274.079" fill="white"/>
</clipPath>
</defs>
</svg>

<svg width="216" height="275" fill="none" xmlns="http://www.w3.org/2000/svg"><g clip-path="url(#clip0)" opacity=".7"><mask id="a" maskUnits="userSpaceOnUse" x="-85" y="-70" width="536" height="535"><path fill-rule="evenodd" clip-rule="evenodd" d="M8.25 172.09a231.067 231.067 0 00-6.978 25.206L110.153 89.563c-2.022-.031-4.045-.081-6.065-.13-3.297-.082-6.588-.163-9.855-.164L8.25 172.09zm9.029-22.247l59.678-59.34c-8.48 1.478-16.568 4.6-23.932 10.961-15.112 13.052-26.9 29.891-35.746 48.379zM121.9 89.403L-1.944 215.279a423.348 423.348 0 00-2.114 16.971L144.308 84.743c-7.201 3.033-14.741 4.243-22.407 4.66zm59.152-41.192l68.542-68.145c-3.066.08-6.195.45-9.384 1.138-22.244 4.805-35.609 27.477-49.36 50.803-3.206 5.438-6.432 10.912-9.798 16.204zM261.7-18.734L-5.112 244.583c-.435 6.531-.663 13.057-.621 19.5l273.83-280.94a53.129 53.129 0 00-6.396-1.877zm14.137 5.332L-5.33 275.97c.192 3.043.456 6.057.799 9.031L287.121-5.972c-3.612-2.847-7.375-5.354-11.283-7.43zm15.006 10.528L-2.881 295.87c.84 4.399 1.887 8.68 3.164 12.812L302.166 8.622c-3.573-4.137-7.349-8.014-11.322-11.496zm20.339 23.028L3.186 316.821c1.937 4.746 4.236 9.242 6.944 13.433L316.142 27.47a192.516 192.516 0 00-4.959-7.316zm8.078 12.298L17.209 339.454c.145.158.29.316.437.473a66.025 66.025 0 006.64 6.203L326.612 45.557a58.654 58.654 0 00-1.163-2.278 240.777 240.777 0 00-6.188-10.827zm10.438 20.712L29.017 349.645c4.338 2.939 8.992 5.37 13.895 7.346L331.67 60.23a74.327 74.327 0 00-1.971-7.066zm3.541 16.127l-281.8 290.621a99.06 99.06 0 008.14 1.958L334.203 87.932c.035-6.366-.212-12.606-.962-18.64zm.808 26.058L70.199 363.44c4.74.483 9.577.704 14.469.695L332.883 117.33c.094-1.63.191-3.26.289-4.888.343-5.737.684-11.452.876-17.093zm-1.922 41.689L96.845 363.664c7.642-.56 15.333-1.601 22.919-2.999l212.712-210.468c-.291-4.339-.384-8.734-.35-13.159zm1.283 21.803L139.71 355.714c14.606-5.869 26.682-18.639 38.848-31.504 12.476-13.193 25.046-26.486 40.538-32.54l117.87-117.187c-1.504-5.238-2.75-10.46-3.557-15.642zm6.603 25.374L234.953 287.897c4.922-.533 9.924-.574 14.962-.303l92.892-95.304a479.705 479.705 0 01-2.795-8.075zm8.809 25.049l-78.397 80.684c2.042.316 4.08.642 6.112.967 1.976.317 3.946.632 5.908.935l70.29-70.126c-1.151-4.12-2.486-8.278-3.913-12.46zm6.126 21.541l-61.51 62.562c6.459.738 12.763 1.106 18.811.686l44.31-44.043c.389-6.242-.279-12.662-1.611-19.205z" fill="#fff"/></mask><g mask="url(#a)"><path d="M115.077 172.936h28.96c0 3.982 1.267 7.059 3.801 9.231 2.534 2.172 5.973 3.258 10.317 3.258s7.723-1.387 10.136-4.163c2.534-2.896 3.862-6.576 3.982-11.041-.12-4.585-1.206-8.265-3.258-11.041-1.93-2.775-4.464-4.525-7.602-5.249-3.016-.844-6.455-1.327-10.317-1.448a48.142 48.142 0 00-11.041.543v-4.163l18.824-37.286h-38.915V84.789h80.726v4.706l-23.168 42.716c17.256 4.586 25.883 17.195 25.883 37.829 0 11.705-3.982 21.962-11.946 30.77-7.964 8.688-18.884 13.032-32.761 13.032-12.549 0-22.926-3.68-31.132-11.041-8.084-7.481-12.247-17.436-12.489-29.865z" fill="#fff"/></g></g><defs><clipPath id="clip0"><path fill="#fff" d="M.246.809h215.608v274.079H.246z"/></clipPath></defs></svg>
